X: 7
T: The Flowers Of Edinburgh
R: reel
M: 4/4
L: 1/8
K: Gmaj
D2 |G2 G2 B2 B2 | d2 ef g2 e2 | dcBA GFGA | B2 G2 E2 D2 |
G2 G2 B2 B2 | d2 ef g2 e2 | dcBA GFGA | B2 G2 G2- |]
Gf |g2 g2 gbag | f2 f2 fagf | e2 ef gfed | B2 e2 e4 |
dcBc d2 d2 | edef g2 e2 | dcBA GFGA | B2 G2 G2 |]


Tune 2549	Setting 15826

